!!!!SEGMENT: pl-gd--ee-1638--002-020_marenzio-luca--motettorum-pro-festis-totius-anni-in-festo-s-mariae-ad-nives-sancta-maria.krn
!!!cenid: 15xx:1023
!!!COM: Marenzio, Luca
!!!COM-rismID:
!!!CDT: ~1553-1599/08/22
!!!CNT: Italian
!!!GTL: Motettorum pro festis totius anni
!!!OTL: In festo S. Mariae ad Nives/Sancta Maria
!!!OMV: 020
!!!PDT: 1588
!!!AGN:
!!!SMS-siglum: PL-GD
!!!SMS-shelfmark: Ee 1638
!!!SMS-variant:
!!!SMS-altvar:
!!!SMS-shelfwork: 002-020 G
!!!NIFC-rismSourceID: 990039238
!!!NIFC-islandoraID: pl-gd:57883
!!!URL-pdf-islandora: https://repozytorium.nifc.pl/islandora/object/pl-gd%3A57883/datastream/PDF/view
!!!URL-scan: https://polish.musicsources.pl/pl/lokalizacje/galeria/klocki-introligatorskie/655 @EN{Scan on Polish Music Herritage in Open Access Website} @PL{Skany w portalu Dziedzictwo Muzyki Polskiej w otwartym dostępie}
!!!ONB-nifc: UWAGA: Cantus: s. 626 (lewa), Altus: s. 474 (lewa), Tenor: s. 322 (lewa), Bassus: s. 170 (lewa)
!!!AIN: 1 alto 1 bass 1 soprn 1 tenor
!!!key: g
**kern	**text	**kern	**text	**kern	**text	**kern	**text
*part4	*part4	*part3	*part3	*part2	*part2	*part1	*part1
*staff4	*staff4	*staff3	*staff3	*staff2	*staff2	*staff1	*staff1
*I"BASSVS	*	*I"TENOR	*	*I"ALTVS	*	*I"CANTVS	*
*I'B	*	*I'T	*	*I'A	*	*I'S	*
*ICvox	*	*ICvox	*	*ICvox	*	*ICvox	*
*Ibass	*	*Itenor	*	*Ialto	*	*Isoprn	*
*clefF3	*	*clefC3	*	*clefC2	*	*clefG2	*
*k[b-]	*	*k[b-]	*	*k[b-]	*	*k[b-]	*
*g:	*	*g:	*	*g:	*	*g:	*
*M2/1	*	*M2/1	*	*M2/1	*	*M2/1	*
*met(C|)	*	*met(C|)	*	*met(C|)	*	*met(C|)	*
=1-	=1-	=1-	=1-	=1-	=1-	=1-	=1-
!LO:TX:a:i:t=In feſto S. Mariæ ad Niues.	!	!LO:TX:a:i:t=In feſto S. Mariæ ad Niues.	!	!LO:TX:a:i:t=In feſto S. Mariæ ad Niues.	!	!LO:TX:a:i:t=In feſto S. Mariæ ad Niues.	!
!LO:TX:t=P:problem:podwójnie zapisany znak przykluczowy: BB- B-	!	!	!	!LO:TX:t=P:problem:podwójnie zapisany znak przykluczowy: B- b-	!	!	!
00r	.	00r	.	1g	SAn-	0r	.
.	.	.	.	2g\	-cta	.	.
.	.	.	.	2g\	Ma-	.	.
=2-	=2-	=2-	=2-	=2-	=2-	=2-	=2-
.	.	.	.	1a	-ri-	1cc	SAn-
.	.	.	.	1f	-a	2cc\	-cta
.	.	.	.	.	.	2cc\	Ma-
=3-	=3-	=3-	=3-	=3-	=3-	=3-	=3-
1r	.	0r	.	2r	.	1dd	-ri-
.	.	.	.	2d/	ſuc-	.	.
1G	SAn-	.	.	2e-X/	-cur-	1b-	-a
.	.	.	.	2d/	-re	.	.
=4-	=4-	=4-	=4-	=4-	=4-	=4-	=4-
2G\	-cta	1r	.	2.b-\	mi-	2r	.
2G\	Ma-	.	.	.	.	2dd\	ſuc-
.	.	.	.	4b-\	-ſe-	.	.
1A	-ri-	1c	SAn-	1a	-ris	2ff\	-cur-
.	.	.	.	.	.	2ee\	-re
=5-	=5-	=5-	=5-	=5-	=5-	=5-	=5-
1F	-a	2c/	-cta	2r	.	2.a/	mi-
*	*	*	*	*	*ij	*	*
.	.	2c/	Ma-	2A/	ſuc-	.	.
.	.	.	.	.	.	4g/	-ſe-
2r	.	1d	-ri-	2B-/	-cur-	1f	-ris
2D/	ſuc-	.	.	2A/	-re	.	.
=6-	=6-	=6-	=6-	=6-	=6-	=6-	=6-
2E-X/	-cur-	1B-	-a	4G/	mi-	2r	.
.	.	.	.	4A/	.	.	.
*	*	*	*	*	*	*	*ij
2D/	-re	.	.	1B-	.	2dd\	ſuc-
2.C/	mi-	1r	.	.	.	1ee-X	-cur-
.	.	.	.	2A/	-ſe-	.	.
4C/	-ſe-	.	.	.	.	.	.
=7-	=7-	=7-	=7-	=7-	=7-	=7-	=7-
1BB-	-ris	2r	.	2B-/	-ris	1dd	-re
*	*	*	*	*custos:f	*	*	*
!	!	!	!	!LO:LB:g=original	!	!	!
.	.	2d\	ſuc-	2f\	ſuc-	.	.
1r	.	2e-X\	-cur-	2g\	-cur-	4cc\	mi-
.	.	.	.	.	.	4b-\	.
.	.	2d\	-re	2f\	-re	1b-\	.
=8-	=8-	=8-	=8-	=8-	=8-	=8-	=8-
1r	.	2.c/	mi-	2.e-X/	mi-	.	.
.	.	.	.	.	.	2a/	-ſe-
.	.	4c/	-ſe-	4e-/	-ſe-	.	.
2r	.	2B-/	-ris	1d	-ris	0b-	-ris
1B-\	iu-	1d\	iu-	.	.	.	.
*custos:G	*	*	*	*	*Xij	*	*Xij
!LO:LB:g=original	!	!	!	!	!	!	!
=9-	=9-	=9-	=9-	=9-	=9-	=9-	=9-
.	.	.	.	2r	.	.	.
2G\	-ua	2d\	-ua	2g\	ſan-	.	.
!	!	!	!	!	!	!LO:TX:t=P:problem:Verovio nie wyświetla pauzy	!
2B-\	puſ-	2d\	puſ-	2g\	-cta	1r	.
2c\	-il-	2eny\	-il-	2g\	Ma-	.	.
=10-	=10-	=10-	=10-	=10-	=10-	=10-	=10-
2.F/	-la-	4f\	-la-	1a	-ri-	1ff	Sã(n)-
.	.	4e\	.	.	.	.	.
.	.	4d\	.	.	.	.	.
4F/	-ni-	4c\	.	.	.	.	.
*	*	*custos:d	*	*	*	*	*
!	!	!LO:LB:g=original	!	!	!	!	!
2BB-/	-mes	4d\	.	1f	-a	2ff\	-cta
.	.	4c/	.	.	.	.	.
2D/	ſuc-	4B-/	.	.	.	2ff\	Ma-
.	.	4A/	.	.	.	.	.
*	*	*	*	*	*	*custos:gg	*
!	!	!	!	!	!	!LO:LB:g=original	!
=11-	=11-	=11-	=11-	=11-	=11-	=11-	=11-
2E-X/	-cur-	4G/	.	1B-	ſuc-	1gg	-ri-
.	.	4A/	.	.	.	.	.
2D/	-re	1B-	.	.	.	.	.
2.C/	mi-	.	.	1e-X	-cur-	1ee-X	-a
.	.	2A/	-ni-	.	.	.	.
4C/	-ſe-	.	.	.	.	.	.
=12-	=12-	=12-	=12-	=12-	=12-	=12-	=12-
1BB-	-ris	4B-/	-mes	2d/	-re	2r	.
.	.	4c/	.	.	.	.	.
.	.	4d\	.	1B-	ſuc-	1dd	ſuc-
.	.	4e\	.	.	.	.	.
1r	.	4f\	.	.	.	.	.
.	.	4g\	.	.	.	.	.
.	.	4a\	.	2A/	-cur-	1ff\	-cur-
.	.	4f\	.	.	.	.	.
=13-	=13-	=13-	=13-	=13-	=13-	=13-	=13-
!	!	!	!	!LO:N:acc=#	!	!	!
1G	San-	1g	.	2Bn/	-re	.	.
.	.	.	.	1c	mi-	2eeny\	-re
2G\	-cta	2r	.	.	.	2.dd\	mi-
!	!	!	!	!LO:N:acc=#	!	!	!
2G\	Ma-	2d\	ſuc-	2Bn/	-ſe-	.	.
.	.	.	.	.	.	4dd\	-ſe-
=14-	=14-	=14-	=14-	=14-	=14-	=14-	=14-
1A	-ri-	2f\	-cur-	1c	-ris	2cc\	-ris
*	*	*	*	*	*	*	*ij
.	.	2e\	-re	.	.	1a	ſuc-
0F	-a	2.d\	mi-	1f	Sã(n)-	.	.
.	.	.	.	.	.	1b-\	-cur-
.	.	4d\	-ſe-	.	.	.	.
=15-	=15-	=15-	=15-	=15-	=15-	=15-	=15-
.	.	0c	-ris	2f\	-cta	.	.
.	.	.	.	1f	Ma-	2a/	-re
2r	.	.	.	.	.	1.g	mi-
*	*ij	*	*	*	*	*	*
2c\	San-	.	.	4eny/	.	.	.
.	.	.	.	4d/	.	.	.
*custos:c	*	*	*	*	*	*	*
!LO:LB:g=original	!	!	!	!	!	!	!
=16-	=16-	=16-	=16-	=16-	=16-	=16-	=16-
2c\	-cta	0r	.	1e	-ri-	.	.
2c\	Ma-	.	.	.	.	2g/	-ſe-
*	*	*	*	*custos:f	*	*	*
!	!	!	!	!LO:LB:g=original	!	!	!
1d	-ri-	.	.	2f\	-a	2f/	-ris
*	*	*	*ij	*	*	*	*Xij
.	.	.	.	2a\	ſuc-	2ff\	Sã(n)-
=17-	=17-	=17-	=17-	=17-	=17-	=17-	=17-
1B-	-a	1d	ſuc-	2.b-\	-cur-	2ff\	-cta
.	.	.	.	.	.	2ff\	Ma-
.	.	.	.	4a\	-re	.	.
1r	.	2e-X\	-cur-	4g\	.	1gg	-ri-
.	.	.	.	4a\	.	.	.
.	.	2d\	-re	1b-\	mi-	.	.
*	*Xij	*custos:c	*	*	*	*	*
!	!	!LO:LB:g=original	!	!	!	!	!
=18-	=18-	=18-	=18-	=18-	=18-	=18-	=18-
1r	.	2.c/	mi-	.	.	1ee-X	-a
.	.	.	.	2a\	-ſe-	.	.
.	.	4c/	-ſe-	.	.	.	.
2r	.	2B-/	-ris	0b-	-ris	1r	.
*	*	*	*Xij	*	*	*	*
1B-\	iu-	1d\	iu-	.	.	.	.
=19-	=19-	=19-	=19-	=19-	=19-	=19-	=19-
.	.	.	.	.	.	0r	.
2G\	-ua	2d\	-ua	.	.	.	.
2B-\	puſ-	2d\	puſ-	2r	.	.	.
2c\	-il-	2eny\	-il-	2g\	ſuc-	.	.
=20-	=20-	=20-	=20-	=20-	=20-	=20-	=20-
2.d\	-la-	2.f\	-la-	2b-\	-cur-	1dd	ſuc-
.	.	.	.	2a\	-re	.	.
4d\	-ni-	4f\	-ni-	.	.	.	.
1c	-mes	1g	-mes	2.cc\	mi-	1.ee-X	-cur-
.	.	.	.	8b-\	.	.	.
.	.	.	.	8a\	.	.	.
=21-	=21-	=21-	=21-	=21-	=21-	=21-	=21-
0r	.	1r	.	4g\	.	.	.
.	.	.	.	4a\	.	.	.
.	.	.	.	2.b-\	.	2dd\	-re
.	.	2.f\	re-	.	.	2.cc\	mi-
.	.	.	.	8a\	.	.	.
.	.	.	.	8g\	.	.	.
.	.	.	.	2a\	.	.	.
.	.	4f\	-fo-	.	.	4cc\	-ſe-
*	*	*	*	*	*	*custos:b-	*
!	!	!	!	!	!	!LO:LB:g=original	!
=22-	=22-	=22-	=22-	=22-	=22-	=22-	=22-
2.B-\	re-	1.d	-ue	1f	-ſe-	2b-/	-ris
.	.	.	.	.	.	1b-	iu-
4B-\	-fo-	.	.	.	.	.	.
1G	-ue	.	.	0g	-ris	.	.
.	.	1e-X\	de-	.	.	2g/	-ua
=23-	=23-	=23-	=23-	=23-	=23-	=23-	=23-
2E-X/	de-	.	.	.	.	2b-/	puſ-
2C/	-bi-	2e-yX\	-bi-	.	.	2cc\	-il-
0G	-les	2d\	-les	2r	.	2.dd\	-la-
.	.	1B-/	iu-	1d/	iu-	.	.
.	.	.	.	.	.	4dd\	-ni-
*custos:F	*	*	*	*	*	*	*
!LO:LB:g=original	!	!	!	!	!	!	!
=24-	=24-	=24-	=24-	=24-	=24-	=24-	=24-
.	.	.	.	.	.	4g/	-mes
.	.	.	.	.	.	4a/	.
.	.	2G/	-ua	2d/	-ua	4b-/	.
.	.	.	.	.	.	4cc\	.
1r	.	2B-/	puſ-	2d/	pu-	2dd\	.
*	*	*	*	*custos:e	*	*	*
!	!	!	!	!LO:LB:g=original	!	!	!
.	.	2c/	-il-	2e/	-ſil-	4cc\	.
.	.	.	.	.	.	4b-/	.
=25-	=25-	=25-	=25-	=25-	=25-	=25-	=25-
0r	.	2.d\	-la-	2.f\	-la-	4a/	.
.	.	.	.	.	.	4g/	.
.	.	.	.	.	.	2.f/	.
.	.	4d\	-ni-	4f\	-ni-	.	.
.	.	1c	-mes	1g	-mes	.	.
.	.	.	.	.	.	4e/	.
.	.	.	.	.	.	4e/	.
.	.	.	.	.	.	8d/	.
.	.	.	.	.	.	8e/	.
*	*	*custos:f	*	*	*	*	*
!	!	!LO:LB:g=original	!	!	!	!	!
=26-	=26-	=26-	=26-	=26-	=26-	=26-	=26-
2.F/	re-	2r	.	2r	.	1f	.
.	.	2.f\	re-	2.a\	re-	.	.
4F/	-fo-	.	.	.	.	.	.
1D	-ue	.	.	.	.	2.ff\	re-
.	.	4f\	-fo-	4a\	-fo-	.	.
.	.	2d\	-ue	1f\	-ue	.	.
.	.	.	.	.	.	4ff\	-fo-
=27-	=27-	=27-	=27-	=27-	=27-	=27-	=27-
2.B-\	re-	2r	.	.	.	2dd\	-ue
.	.	2.d\	re-	2.g\	re-	1b-	de-
4B-\	-fo-	.	.	.	.	.	.
1G	-ue	.	.	.	.	.	.
.	.	4d\	-fo-	4g\	-fo-	.	.
.	.	2g\	-ue	1e\	-ue	2b-/	-bi-
=28-	=28-	=28-	=28-	=28-	=28-	=28-	=28-
2.A\	de-	1c	de-	.	.	00a	-les
.	.	.	.	1f	de-	.	.
4G\	.	.	.	.	.	.	.
2F/	.	2c/	-bi-	.	.	.	.
2D/	-bi-	1d\	-les	2f\	-bi-	.	.
=29-	=29-	=29-	=29-	=29-	=29-	=29-	=29-
0A	-les	.	.	0e	-les	.	.
.	.	4c/	.	.	.	.	.
!	!	!LO:N:acc=#	!	!	!	!	!
.	.	4Bn/	.	.	.	.	.
.	.	1c#X	.	.	.	.	.
=30-	=30-	=30-	=30-	=30-	=30-	=30-	=30-
0r	.	2r	.	0r	.	1dd	o-
.	.	2d\	o-	.	.	.	.
*	*	*	*	*	*	*custos:dd	*
!	!	!	!	!	!	!LO:LB:g=original	!
.	.	2f\	-ra	.	.	2dd\	-ra
.	.	2g\	pro	.	.	2dd\	pro
=31-	=31-	=31-	=31-	=31-	=31-	=31-	=31-
1r	.	2.eny\	po-	1r	.	2.cc#X\	po-
.	.	4e\	-pu-	.	.	4cc#\	-pu-
2r	.	1d	-lo	2r	.	2.dd\	-lo
2.d\	in-	.	.	2.f\	in-	.	.
.	.	.	.	.	.	8ccny\	.
.	.	.	.	.	.	8b-\	.
=32-	=32-	=32-	=32-	=32-	=32-	=32-	=32-
.	.	00r	.	.	.	1a	.
4c\	-ter-	.	.	4e/	-ter-	.	.
2A\	-ue-	.	.	2f\	-ue-	.	.
2B-\	-ni	.	.	2d/	-ni	1r	.
2c\	pro	.	.	2e/	pro	.	.
=33-	=33-	=33-	=33-	=33-	=33-	=33-	=33-
1A	cle-	.	.	1f#X	cle-	1r	.
1G	-ro	.	.	1g	-ro	2r	.
.	.	.	.	.	.	1dd\	in-
=34-	=34-	=34-	=34-	=34-	=34-	=34-	=34-
1.B-	In-	1.d	in-	2r	.	.	.
.	.	.	.	1fny	in-	2dd\	-ter-
.	.	.	.	.	.	0dd	-ce-
2B-\	-ter-	2f\	-ter-	2d/	-ter-	.	.
*custos:B-	*	*	*	*custos:b-	*	*	*
!LO:LB:g=original	!	!	!	!LO:LB:g=original	!	!	!
=35-	=35-	=35-	=35-	=35-	=35-	=35-	=35-
1B-	-ce-	1f	-ce-	1b-	-ce-	.	.
*	*	*custos:f	*	*	*	*	*
!	!	!LO:LB:g=original	!	!	!	!	!
1F	-de	1f	-de	1a	-de	1cc	-de
=36-	=36-	=36-	=36-	=36-	=36-	=36-	=36-
1.G	pro	2.d\	pro	2.g\	pro	1.b-	pro
.	.	4cny/	.	8f\	.	.	.
.	.	.	.	8e\	.	.	.
.	.	2B-y/	.	2d/	.	.	.
2E-X/	de-	2B-/	de-	2e-X/	de-	2g/	de-
=37-	=37-	=37-	=37-	=37-	=37-	=37-	=37-
0E-yX	-uo-	0B-	-uo-	0e-yX	-uo-	0g	-uo-
=38-	=38-	=38-	=38-	=38-	=38-	=38-	=38-
1C	-to	1c	-to	1e-yX	-to	1g	-to
2D/	fœ-	2A/	fœ-	2d/	fœ-	2f#X/	fœ-
2.D/	-mi-	2.A/	-mi-	2.d/	-mi-	2.f#/	-mi-
=39-	=39-	=39-	=39-	=39-	=39-	=39-	=39-
4D/	-ne-	4A/	-ne-	4d/	-ne-	4f#yX/	-ne-
2G\	-o	2B-/	-o	2d/	-o	2g/	-o
1F	ſe-	1c	ſe-	1f	ſe-	1a	ſe-
=40-	=40-	=40-	=40-	=40-	=40-	=40-	=40-
1F	-xu	1c	-xu	2f\	-xu	1a	-xu
.	.	.	.	2.f\	ſen-	.	.
2.B-\	ſen-	2.d\	ſen-	.	.	1r	.
.	.	.	.	4f\	-ti-	.	.
.	.	.	.	2g\	-ant	.	.
4B-\	-ti-	4d\	-ti-	.	.	.	.
=41-	=41-	=41-	=41-	=41-	=41-	=41-	=41-
2c\	-ant	2e\	-ant	1a	om-	00r	.
2.d\	om-	2.f\	om-	.	.	.	.
.	.	.	.	1a	-nes	.	.
4d\	-nes	4f\	-nes	.	.	.	.
2d\	tu-	2f\	tu-	.	.	.	.
=42-	=42-	=42-	=42-	=42-	=42-	=42-	=42-
2c\	-um	2e\	-um	0r	.	.	.
2B-\	iu-	2d\	iu-	.	.	.	.
1A	-ua-	1c	-ua-	.	.	.	.
=43-	=43-	=43-	=43-	=43-	=43-	=43-	=43-
1G	-men	1d	-men	2.g\	ſen-	2.b-/	ſen-
.	.	.	.	4g\	-ti-	4b-/	-ti-
*	*	*	*	*	*	*custos:cc	*
!	!	!	!	!	!	!LO:LB:g=original	!
1r	.	1r	.	2a\	-ant	2cc\	-ant
.	.	.	.	2.b-\	om-	2.dd\	om-
*custos:D	*	*	*	*	*	*	*
!LO:LB:g=original	!	!	!	!	!	!	!
=44-	=44-	=44-	=44-	=44-	=44-	=44-	=44-
00r	.	1B-	qui-	.	.	.	.
.	.	.	.	4b-\	-nes	4dd\	-nes
.	.	.	.	2b-\	tu-	2dd\	tu-
*	*	*custos:c	*	*custos:a	*	*	*
!	!	!LO:LB:g=original	!	!LO:LB:g=original	!	!	!
.	.	1c	-cun-	2a\	-um	2cc\	-um
.	.	.	.	1g\	iu-	2b-/	iu-
=45-	=45-	=45-	=45-	=45-	=45-	=45-	=45-
.	.	1d	-que	.	.	1a	-ua-
.	.	.	.	2f#X\	-ua-	.	.
.	.	2.e-X\	ce-	4g\	-men	1g	-men
.	.	.	.	4a\	.	.	.
.	.	.	.	4b-\	.	.	.
.	.	4e-\	-le-	4g\	.	.	.
=46-	=46-	=46-	=46-	=46-	=46-	=46-	=46-
2.D/	ſen-	1d	-brant	1a	.	2.fny/	ſen-
4D/	-ti-	.	.	.	.	4f/	-ti-
2Eny/	-ant	1.c	tu-	1r	.	2g/	-ant
2.F/	om-	.	.	.	.	2.a/	om-
=47-	=47-	=47-	=47-	=47-	=47-	=47-	=47-
.	.	.	.	1fny	qui-	.	.
4F/	-nes	.	.	.	.	4a/	-nes
2F/	tu-	2A/	-am	.	.	2a/	tu-
2E-X/	-um	1B-	ſan-	1.g	-cun-	2g/	-um
2D/	iu-	.	.	.	.	2f/	iu-
=48-	=48-	=48-	=48-	=48-	=48-	=48-	=48-
1C	-ua-	2c/	-ctã(m)	.	.	1e-X	-ua-
.	.	2c/	feſ-	2a\	-que	.	.
1BB-	-men	2.F/	-ti-	2.b-\	ce-	2d/	-men
.	.	.	.	.	.	1dd\	iu-
.	.	4G/	-ui-	4b-\	-le-	.	.
=49-	=49-	=49-	=49-	=49-	=49-	=49-	=49-
1F	qui-	1A	-ta-	1a	-brant	.	.
.	.	.	.	.	.	1cc	-ua-
1G	-cum-	1d	-tem	1g	tu-	.	.
!	!	!	!	!	!	!LO:N:acc=#	!
.	.	.	.	.	.	2bn/	-men
=50-	=50-	=50-	=50-	=50-	=50-	=50-	=50-
1A	-que	0r	.	2eny/	-am	2r	.
.	.	.	.	1f	ſan-	2cc\	qui-
2.B-\	ce-	.	.	.	.	1dd	-cun-
.	.	.	.	2g\	-ctã(m)	.	.
4B-\	-le-	.	.	.	.	.	.
*	*	*	*	*	*	*custos:ee	*
!	!	!	!	!	!	!LO:LB:g=original	!
=51-	=51-	=51-	=51-	=51-	=51-	=51-	=51-
0.A	-brant	2r	.	2c/	feſ-	1eeny	-que
.	.	1c	qui-	1e	-ti-	.	.
.	.	.	.	.	.	2.ff\	ce-
.	.	2d\	-cun-	1d/	-ui-	.	.
.	.	.	.	.	.	4ff\	-le-
=52-	=52-	=52-	=52-	=52-	=52-	=52-	=52-
.	.	1eny	-que	.	.	1ee	-brant
.	.	.	.	2c#X/	-ta-	.	.
1r	.	2.f\	ce-	1d	-tem	2a/	tu-
.	.	.	.	.	.	2f/	-am
.	.	4f\	-le-	.	.	.	.
=53-	=53-	=53-	=53-	=53-	=53-	=53-	=53-
2r	.	1e	-brant	1r	.	1g	ſan-
1c	tu-	.	.	.	.	.	.
.	.	2e\	qui-	1cny	qui-	1a	-ctã(m)
2A\	-am	1f\	-cun-	.	.	.	.
*	*	*custos:d	*	*custos:d	*	*	*
!	!	!LO:LB:g=original	!	!LO:LB:g=original	!	!	!
=54-	=54-	=54-	=54-	=54-	=54-	=54-	=54-
1B-	ſan-	.	.	1d	-cun-	2f/	feſ-
.	.	2d\	-que	.	.	2.ff\	-ti-
*custos:c	*	*	*	*	*	*	*
!LO:LB:g=original	!	!	!	!	!	!	!
2c\	-ctã(m)	2.g\	ce-	1e	-que	.	.
.	.	.	.	.	.	4ee\	-ui-
2c\	feſ-	.	.	.	.	2.ee\	-ta-
.	.	4g\	-le-	.	.	.	.
=55-	=55-	=55-	=55-	=55-	=55-	=55-	=55-
2.F/	-ti-	0a	-brant	2f\	ce-	.	.
.	.	.	.	.	.	4dd\	.
.	.	.	.	2f\	-le-	2.dd\	.
4G\	-ui-	.	.	.	.	.	.
1A	-ta-	.	.	1e	-brant	.	.
.	.	.	.	.	.	4cc\	.
.	.	.	.	.	.	4cc\	.
!	!	!	!	!	!	!LO:N:acc=#	!
.	.	.	.	.	.	8bn\	.
.	.	.	.	.	.	8cc#X\	.
=56-	=56-	=56-	=56-	=56-	=56-	=56-	=56-
0d	-tem	1.f	tu-	1r	.	2.dd\	.
.	.	.	.	.	.	8ccny\	.
.	.	.	.	.	.	8b-y\	.
*	*	*	*	*	*ij	*	*
.	.	.	.	1f	qui-	2.a/	.
.	.	2d\	-am	.	.	.	.
.	.	.	.	.	.	4b-/	.
=57-	=57-	=57-	=57-	=57-	=57-	=57-	=57-
00r	.	1e	ſan-	1g	-cun-	4cc\	.
.	.	.	.	.	.	4g/	.
*	*	*	*	*	*	*custos:cc	*
!	!	!	!	!	!	!LO:LB:g=original	!
.	.	.	.	.	.	2.cc\	.
.	.	2f\	-ctam	1a	-que	.	.
.	.	.	.	.	.	4b-/	.
.	.	2f\	feſ-	.	.	2.a/	.
=58-	=58-	=58-	=58-	=58-	=58-	=58-	=58-
.	.	2.B-/	-ti-	2b-\	ce-	.	.
.	.	.	.	.	.	4g/	.
.	.	.	.	2b-\	-le-	1g	.
.	.	4c/	-ui-	.	.	.	.
*	*	*	*	*lig	*	*	*
.	.	1d	-ta-	1a	-brant	.	.
.	.	.	.	.	.	2f#X/	.
=59-	=59-	=59-	=59-	=59-	=59-	=59-	=59-
*	*	*	*	*col	*Xij	*	*
1B-	Qui	1G	-tem	2.b-\	.	2g/	-tem
*	*	*	*	*	*	*	*ij
.	.	.	.	.	.	2dd\	qui-
*	*	*	*	*Xlig	*	*	*
.	.	.	.	4a\	.	.	.
*	*	*	*	*Xcol	*	*	*
1c	cun-	1r	.	1g	.	1ee	-cun-
=60-	=60-	=60-	=60-	=60-	=60-	=60-	=60-
1d	-que	1r	.	2r	.	1ff	-que
.	.	.	.	2.f\	ſen-	.	.
2.B-\	ce-	2.d\	ſen-	.	.	2.dd\	ce-
.	.	.	.	4f\	-ti-	.	.
.	.	.	.	2g\	-ant	.	.
4B-\	-le-	4d\	-ti-	.	.	4dd\	-le-
=61-	=61-	=61-	=61-	=61-	=61-	=61-	=61-
2A\	-brant	2e\	-ant	2.a\	om-	2cc\	-brant
2A\	tu-	2.f\	o-	.	.	1cc	tu-
.	.	.	.	4a\	-nes	.	.
1F	-am	.	.	1a	tu-	.	.
.	.	4f\	-mnes	.	.	.	.
.	.	2f\	tu-	.	.	1cc\	-am
=62-	=62-	=62-	=62-	=62-	=62-	=62-	=62-
1G	ſan-	2e\	-um	2g\	-um	.	.
.	.	2d\	iu-	2f\	iu-	2b-/	ſan-
*	*	*	*	*custos:e	*	*	*
!	!	!d	!	!LO:LB:g=original	!	!	!
2A\	-ctam	1c#X	-ua-	1e	-ua-	2a/	-ctã(m)
2A\	feſ-	.	.	.	.	1a/	feſ-
*	*	*custos:d	*	*	*	*	*
!	!	!LO:LB:g=original	!	!	!	!	!
=63-	=63-	=63-	=63-	=63-	=63-	=63-	=63-
2.D/	-ti-	1d	-men	2f\	-men-	.	.
.	.	.	.	2f\	-qui-	1b-	-ti-
4Eny/	-ui-	.	.	.	.	.	.
*custos:F	*	*	*	*	*	*	*
!LO:LB:g=original	!	!	!	!	!	!	!
1F	-ta-	1r	.	1c	-cun-	.	.
.	.	.	.	.	.	2a/	-ui-
=64-	=64-	=64-	=64-	=64-	=64-	=64-	=64-
1BB-	-tem	2r	.	2d/	-que	2.b-/	-ta-
.	.	2B-/	qui-	1f	ce-	.	.
.	.	.	.	.	.	4a/	.
1r	.	1cny	-cun-	.	.	1g	.
.	.	.	.	2e/	-le-	.	.
=65-	=65-	=65-	=65-	=65-	=65-	=65-	=65-
*	*ij	*	*	*	*	*	*
1BB-	Qui-	1d	-que	2f\	-brant	1fny	-tem
.	.	.	.	2b-\	tu-	.	.
1C	-cun-	2.e-X\	ce-	2g\	-am	2r	.
*	*	*	*	*	*	*	*Xij
.	.	.	.	2a\	ſan-	2cc\	tu-
.	.	4e-\	-le-	.	.	.	.
*	*	*	*	*	*	*custos:a	*
!	!	!	!	!	!	!LO:LB:g=original	!
=66-	=66-	=66-	=66-	=66-	=66-	=66-	=66-
1D	-que	2d\	-brant	1f	-ctã(m)	2a/	-am
.	.	1B-	tu-	.	.	2dd\	ſanc-
2.E-X/	ce-	.	.	1g	feſ-	2b-/	-tã(m)
.	.	2G/	-am	.	.	1cc\	fe-
4E-/	-le-	.	.	.	.	.	.
=67-	=67-	=67-	=67-	=67-	=67-	=67-	=67-
1D	-brant	1.d	ſan-	0f	-ti-	.	.
.	.	.	.	.	.	1b-	-ſti-
1.F	tu-	.	.	.	.	.	.
.	.	4c/	.	.	.	4a/	.
.	.	4B-/	.	.	.	4g/	.
=68-	=68-	=68-	=68-	=68-	=68-	=68-	=68-
.	.	2c/	.	1f	-ui-	2a/	.
!	!	!	!	!	!	!LO:N:acc=#	!
2D/	-am	2d\	-ctã(m)	.	.	2bn/	-ui-
1Eny	ſan-	1G	feſ-	2.g\	-ta-	4cc\	-ta-
.	.	.	.	.	.	4g/	.
.	.	.	.	.	.	2.cc\	.
.	.	.	.	4e/	.	.	.
=69-	=69-	=69-	=69-	=69-	=69-	=69-	=69-
2F/	-ctam	1c	-ti-	4a\	.	.	.
.	.	.	.	4g\	.	4b-y/	.
2F/	feſ-	.	.	4f\	.	2.a/	.
.	.	.	.	4e\	.	.	.
2.BB-/	-ti-	1B-	-uii-	0.d	.	.	.
.	.	.	.	.	.	4g/	.
.	.	.	.	.	.	1g/	.
4C/	-ui-	.	.	.	.	.	.
=70-	=70-	=70-	=70-	=70-	=70-	=70-	=70-
0D	-ta-	0A	-ta-	.	.	.	.
.	.	.	.	.	.	4f#X/	.
.	.	.	.	.	.	4eny/	.
.	.	.	.	.	.	1f#X	.
=71-	=71-	=71-	=71-	=71-	=71-	=71-	=71-
00G	-tem	00G	-tem.	00d	-tem.	00g	-tem.
==	==	==	==	==	==	==	==
*-	*-	*-	*-	*-	*-	*-	*-
!!!system-decoration: [(s1,s2,s3,s4)]
!!!ENC: Mateusz Solarz
!!!END: 2022-07-05
!!!ENC: Natalia Wrzos
!!!END: 2022-07-28
